!!!OTL: Shiyue huarkai
!!!ARE: Asia, China,ÿHunan Qiyang
!! I, 495
!!!SCT: C2174
!!!YEM: Copyright 1995, estate of Helmut Schaffrath.
**kern
*ICvox
*Ivox
!! Mixed meters:  2/4; 3/4
*M3/4
*k[f#c#g#]
*A:
{16ee
16ff#
16ee
16cc#
4b
=1
16ee
16ff#
16ee
16cc#
4b
=2
8ee
16cc#
16b
8ee
16cc#
16b
=3
16a
16b
16cc#
16b
4a}
=4
{8ee
16f#
16a
8b
16b
16a
=5
16f#
16e
16f#
16a
4e}
=6
{8cc#
16cc#
16a
16b
16cc#
16b
16a
4b
=7
*M2/4
8e
16f#
16a
8b
16b
16a
=8
16f#
16e
16f#
16a
4e}
==
!!!AGN: Xiaodiao, Huarkai
!!!ONB: ESAC (Essen Associative Code) Database: SENGANSU
!!!AMT: irregular
!!!AIN: vox
!!!EED: Helmut Schaffrath
!!!EEV: 1.0
*-
